apps/mobile/assets/icons/phosphor/picture-in-picture.svg

<svg
  height="32"
  viewBox="0 0 256 256"
  width="32"
  xmlns="http://www.w3.org/2000/svg"
>
  <path
    d="m216 48h-176a16 16 0 0 0 -16 16v128a16 16 0 0 0 16 16h176a16 16 0 0 0 16-16v-128a16 16 0 0 0 -16-16zm-176 16h176v56h-80a8 8 0 0 0 -8 8v64h-88zm176 128h-72v-56h72z"
  />
</svg>

<svg xmlns="http://www.w3.org/2000/svg" width="32" height="32" fill="#000000" viewBox="0 0 256 256"><path d="M216,48H40A16,16,0,0,0,24,64V192a16,16,0,0,0,16,16H216a16,16,0,0,0,16-16V64A16,16,0,0,0,216,48ZM40,64H216v56H136a8,8,0,0,0-8,8v64H40ZM216,192H144V136h72v56Z"></path></svg>
